!!!!SEGMENT: pl-sa--237-a-vi-41--003_fils-anton--symfonia-in-d-menuet.krn
!!!cenid: 17xx:607
!!!COM: Fils, Anton
!!!COM-rismID: pe30001067
!!!CDT: <1733/09/22-<1760/03/14
!!!CNT: German
!!!OPR: Symfonia in D
!!!OTL: Menuet
!!!OMV: 003
!!!PDT:
!!!AGN: Secular
!!!SMS-siglum: PL-SA
!!!SMS-shelfmark: 237/A VI 41
!!!SMS-shelfwork: 001-003 M
!!!SMS-variant:
!!!SMS-altvar:
!!!NIFC-rismSourceID: 1001035310
!!!NIFC-rismChildID: 1001035310
!!!NIFC-islandoraID:
!!!URL-pdf-islandora:
!!!URL-scan: https://bc.bdsandomierz.pl/dlibra/publication/1590/edition/1558/content @EN{Scan in the Sandomierz Diocese Digital Library} @PL{Skany w portalu Cyfrowa Biblioteka Diecezjalna w Sandomierzu}
!!!ONB-nifc: UWAGA: części Symfonii: Allegro, Andante, Menuet, Presto
!!!AIN: 1 bass 2 flt 2 violn
!!!key:
**kern	**kern	**dynam	**kern	**dynam	**kern	**kern
*part5	*part4	*part4	*part3	*part3	*part2	*part1
*group2	*group2	*	*group2	*	*group1	*group1
*staff5	*staff4	*	*staff3	*	*staff2	*staff1
*Ibass	*Ivioln	*	*Ivioln	*	*Iflt	*Iflt
*I"Basso	*I"Violino Secundo	*	*I"Violino Primo	*	*I"Flauto Secundo	*I"Flauto Primo
*I'B	*I'Vn II	*	*I'Vn I	*	*I'Fl II	*I'Fl I
*clefF4	*clefG2	*	*clefG2	*	*clefG2	*clefG2
*k[f#c#]	*k[f#c#]	*	*k[f#c#]	*	*k[f#c#]	*k[f#c#]
*D:	*D:	*	*D:	*	*D:	*D:
*M3/4	*M3/4	*	*M3/4	*	*M3/4	*M3/4
=1	=1	=1	=1	=1	=1	=1
!LO:TX:a:t=Menueto	!	!	!LO:TX:a:t=Menuet	!	!LO:TX:a:t=Menuet:problem=dopisane ołówkiem	!LO:TX:a:t=Menuet
!LO:TX:t=P::problem=caudy wszystkich nut po prawej&colon; global	!	!	!	!LO:DY:t=f&colon;	!	!
4D\	8d/L	.	8d/L	f	8dd\L	8dd\L
.	8f#/J	.	8f#/J	.	8ff#\J	8ff#\J
4r	4a/	.	4a/	.	4aa\	4aa\
8F#\L	4dd\	.	4dd\	.	4ddd\	4ddd\
8G\J	.	.	.	.	.	.
=2	=2	=2	=2	=2	=2	=2
.	8qqdd/	.	8qqdd/	.	8qqddd/	.
4A\	4.cc#\	.	4.cc#\	.	4.ccc#\	4.ccc#\
4G\	.	.	.	.	.	.
.	8b\	.	8b\	.	8bb\	8bb\
4F#\	4a/	.	4a/	.	4aa\	4aa\
=3	=3	=3	=3	=3	=3	=3
*2\right	*	*	*	*	*	*
2G\	4b\	.	4b/	.	4bb\	4bb\
.	(8gg\L	.	(8gg\L	.	4gg\	4gg\
.	8ee\)	.	8ee\J)	.	.	.
4G#X\	(8ff#\	.	(8ff#\L	.	8ff#\L	8ff#\L
.	8dd\J)	.	8dd\J)	.	8dd\J	8dd\J
=4	=4	=4	=4	=4	=4	=4
.	8qqdd/	.	8qqdd/	.	8qqdd/	8qqdd/
4A\	4.cc#\	.	4.cc#\	.	4.cc#\	4.cc#\
4Gn\	.	.	.	.	.	.
!	!	!	!LO:N:vis=8	!	!	!
.	16dd\LL	.	16dd\LL	.	(16dd\LL	16dd\LL
!	!	!	!LO:N:vis=8	!	!	!
.	16ee\JJ	.	16ee\JJ	.	16ee\JJ)	16ee\JJ
4F#\	4dd\	.	4dd\	.	4dd\	4dd\
=5	=5	=5	=5	=5	=5	=5
*	*	*	*	*	*	*2\right
4r	8ee#X\L	.	16ee#X\KL	.	2.a/	2.ff#\
.	.	.	8.ff#\J	.	.	.
.	8ff#\J	.	.	.	.	.
4D/	8een\L	.	(8een\L	.	.	.
.	8dd\J	.	8dd\	.	.	.
4D/	8cc#\L	.	8cc#\)	.	.	.
.	8b\J	.	8b\J	.	.	.
=6	=6	=6	=6	=6	=6	=6
4C#/	(16dd#X\KL	.	8dd#X\L	.	2.a/	2.ee\
.	8.ee\J)	.	.	.	.	.
.	.	.	(8ee\	.	.	.
4C#/	8ddn\L	.	8ddn\	.	.	.
.	8cc#\	.	8cc#\	.	.	.
4C#/	8b\	.	8b\)	.	.	.
.	8a\J	.	8a\J	.	.	.
=7	=7	=7	=7	=7	=7	=7
*	*Xtuplet	*	*Xtuplet	*	*	*Xtuplet
!	!LO:TX:t=P:problem=mixed beam	!	!LO:TX:t=P:problem=mixed beam	!	!	!
4r	12f#/L	.	12f#/L	.	4b/	12ff#\L
.	12dd\	.	12dd\	.	.	12dd\
.	12b\J	.	12b\J	.	.	12b\J
4E\	4cc#\	.	4cc#\	.	4a/	4cc#\
4EE/	4b\T	.	4b\	.	4g#X/	4b\
=8	=8	=8	=8	=8	=8	=8
.	8qqb/	.	8qqb/	.	8qqg/	8qqb/
4AA/	2a/	.	2a/	.	2a/	2a/
4A\	.	.	.	.	.	.
(16AA/LL	4r	.	4r	.	4r	4r
16BB/	.	.	.	.	.	.
16C#/	.	.	.	.	.	.
16D\JJ)	.	.	.	.	.	.
=9	=9	=9	=9	=9	=9	=9
2E\	4r	.	4r	.	2.e/	2.ee\
.	4g#X/	p	4b\	.	.	.
4r	4a/	.	4cc#\	.	.	.
!	!LO:LB:g=original	!	!LO:LB:g=original	!	!	!
=10	=10	=10	=10	=10	=10	=10
.	8qqcc#/	.	8qqee/	.	.	.
4r	4b\	.	4dd\	.	2.e/	2.ee\
4r	8g#X/L	.	8b\L	.	.	.
.	8b\J	.	8dd\J	.	.	.
16AA/LL	4a/	.	4cc#\	.	.	.
16BB/	.	.	.	.	.	.
16C#/	.	.	.	.	.	.
16D\JJ	.	.	.	.	.	.
!LO:LB:g=original	!	!	!	!	!	!
=11	=11	=11	=11	=11	=11	=11
2E\	4r	.	4r	.	2.e/	2.ee\
.	4g#X/	p	4b\	.	.	.
4r	4a/	.	4cc#\	.	.	.
=12	=12	=12	=12	=12	=12	=12
.	8qqcc#/	.	8qqee/	.	.	.
4r	4b\	.	4dd\	.	2.e/	2.ee\
4r	8g/L	.	8b\L	.	.	.
.	8b\J	.	8dd\J	.	.	.
16AA/LL	4a/	.	4cc#\	.	.	.
16BB/	.	.	.	.	.	.
16C#/	.	.	.	.	.	.
16D\JJ	.	.	.	.	.	.
=13	=13	=13	=13	=13	=13	=13
2.E\	4r	.	4r	.	4f#/	2.ee\
.	4g#X/	.	4b\	.	4g#X/	.
!	!	!LO:DY:t=f&colon;	!	!	!	!
.	4a/	f	4cc#\	f	4a/	.
!	!	!	!	!	!LO:LB:g=original	!
=14	=14	=14	=14	=14	=14	=14
4E\	4.b/	.	8dd\L	.	4.b\	8dd\L
.	.	.	8ee\	.	.	8ee\
4D\	.	.	8ff#\	.	.	8ff#\
.	8gg#X\L	.	8gg#X\	.	8gg#X\L	8gg#X\J
!	!	!	!	!	!	!LO:LB:g=original
4C#\	8.aa\	.	8.aa\	.	8.aa\	8.aa\L
.	16ee\Jk	.	16ee\Jk	.	16ee\Jk	16aa\Jk
=15	=15	=15	=15	=15	=15	=15
.	8qqgg/	.	.	.	8qqggn/	.
4D\	8ff#\L	.	8ff#\L	.	8ff#\L	8ff#\L
.	16ee\L	.	16ee\L	.	16ee\L	8ddd\J
.	16dd\JJ	.	16dd\JJ	.	16dd\JJ	.
4E\	4cc#\	.	4cc#\	.	4cc#/	4ccc#\
4EE/	4b\	.	4b\	.	4b/	4bb\
=16	=16	=16	=16	=16	=16	=16
.	8qqb/	.	8qqb/	.	8qqb/	.
4AA/	2a/	.	2a/	.	2a/	2aa\
8A\L	.	.	.	.	.	.
8G\	.	.	.	.	.	.
8F#\	4r	.	4r	.	4r	4r
8E\J	.	.	.	.	.	.
=17||;;	=17||;	=17||	=17||;	=17||	=17||;;	=17||;
*	*	*	*2\right	*	*	*
4r	4r	.	2.aa\	.	8b\L	2.bb\
.	.	.	.	.	8dd#X\	.
16BB/LL	4r	p	.	.	8ff#\	.
(16C#/	.	.	.	.	.	.
16D#X\	.	.	.	.	8dd#\	.
16E\JJ)	.	.	.	.	.	.
4F#\	16b\LL	.	.	.	8b\	.
.	(16a/	.	.	.	.	.
.	16g/	.	.	.	8dd#\J	.
.	16f#/JJ)	.	.	.	.	.
=18	=18	=18	=18	=18	=18	=18
!	!	!	!	!	!	!LO:N:vis=2
4r	4g/	.	2.gg\	.	8ee\L	2.bb\
.	.	.	.	.	8b\	.
(16E\LL	4r	.	.	.	8g\	.
16F#\	.	.	.	.	.	.
16G\	.	.	.	.	8b\	.
16A\JJ)	.	.	.	.	.	.
4B\	16b\LL	.	.	.	8e\	.
.	16a/	.	.	.	.	.
.	16g/	.	.	.	8g\J	.
.	16f#/JJ	.	.	.	.	.
!	!LO:LB:g=original	!	!	!	!	!
=19	=19	=19	=19	=19	=19	=19
4r	4e/	.	2.gg\	.	8a\L	2.aa\
.	.	.	.	.	8cc#\	.
16AA/LL	4r	.	.	.	8ee\	.
16BB/	.	.	.	.	.	.
16C#/	.	.	.	.	8cc#\	.
16Dn\JJ	.	.	.	.	.	.
4E\	16a/LL	.	.	.	8a\	.
.	(16g/	.	.	.	.	.
.	16f#/	.	.	.	8cc#\J	.
.	16e/JJ)	.	.	.	.	.
!LO:LB:g=original	!	!	!	!	!	!
=20	=20	=20	=20	=20	=20	=20
!LO:TX:a:t=P:problem=przed tym taktem skreślony takt	!	!	!	!	!	!
4r	4f#/	.	2.ff#\	.	8dd\L	2.aa\
.	.	.	.	.	8a\	.
16E\LL	4r	.	.	.	8f#\	.
16E\	.	.	.	.	.	.
16F#\	.	.	.	.	8a\J	.
16G\JJ	.	.	.	.	.	.
4A\	8a\L	.	.	.	8d/L	.
.	8dd\J	.	.	.	8f#/J	.
=21	=21	=21	=21	=21	=21	=21
*	*2\right	*	*	*	*	*
!	!	!LO:DY:a	!	!	!	!
4r	2.b\	f	8ee\L	.	4g/	4gg\
.	.	.	8ff#\J	.	.	.
!	!	!	!LO:LB:g=original	!	!	!
*	*	*	*tuplet	*	*	*
!	!	!	!LO:TUP:a:problem=klamra łukowa, kropka zamiast numeru	!	!	!
4G\	.	.	12gg\L	.	4b/	12gg\L
.	.	.	12ff#\	.	.	12ff#\
.	.	.	12ee\J	.	.	12ee\J
!	!	!	!LO:TUP:a:problem=klamra łukowa, kropka zamiast numeru	!	!	!
4G\	.	.	12bb\L	.	4b/	12bb\L
.	.	.	12gg\	.	.	12gg\
.	.	.	12ee\J	.	.	12ee\J
=22	=22	=22	=22	=22	=22	=22
8A\L	8.a/L	.	4dd\	.	(4b/	(4dd\
8B\	.	.	.	.	.	.
.	16b\Jk	.	.	.	.	.
8A\	8a/L	.	4cc#\	.	4a/)	4cc#\)
8G\	8g/	.	.	.	.	.
8F#\	8f#/	.	4r	.	4r	4r
8E\J	8e/J	.	.	.	.	.
=23	=23	=23	=23	=23	=23	=23
4Dn\	8d/L	.	8d/L	.	8d/L	8dd\L
.	8f#/J	.	8f#/J	.	8f#/J	8ff#\J
!	!	!	!	!	!LO:LB:g=original	!
4d\	4a/	.	4a/	.	4a/	4aa\
4d\	4dd\	.	4dd\	.	4dd\	4ddd\
=24	=24	=24	=24	=24	=24	=24
4c#\	8a\L	.	8a\L	.	8a\L	8a/L
.	8cc#\J	.	8cc#\J	.	8cc#\J	8cc#\J
4c#\	4ee\	.	4ee\	.	4ee\	4ee\
4c#\	4gg\	.	4gg\	.	4gg\	4gg\
=25	=25	=25	=25	=25	=25	=25
4d\	4ff#\	.	4ff#\	.	4ff#\	4ff#\
4c#\	4ee\	.	4ee\	.	4ee\	4ee\
4B\	4dd\	.	4dd\	.	4dd\	4dd\
=26	=26	=26	=26	=26	=26	=26
.	8qqdd/	.	8qqdd/	.	8qqdd/	8qqdd/
4A\	4.cc#\	.	4.cc#\	.	4.cc#\	4.cc#\
4G\	.	.	.	.	.	.
.	8b\	.	8b/	.	8b\	8b\
4F#\	4a/	.	4a/	.	4a/	4a/
!	!	!	!	!	!	!LO:LB:g=original
=27	=27	=27	=27	=27	=27	=27
*	*	*	*Xtuplet	*	*	*
!	!LO:TUP:problem=klamra łukowa	!	!	!	!	!
4G\	12b\L	.	12b\L	.	8b\L	8b\L
.	12gg\	.	12gg\	.	.	.
.	.	.	.	.	8ee\J	8gg\J
.	12ee\J	.	12ee\J	.	.	.
4A\	4dd\	.	4ff#\	.	4dd\	4ff#\
4AA/	4cc#\	.	4ee\T	.	4cc#\	4ee\
=28	=28	=28	=28	=28	=28	=28
.	.	.	8qqee/	.	.	8qqee/
*	*	*	*	*	*2\right	*
4D/	2dd\	.	2dd\	.	2dd\	2dd\
4d\	.	.	.	.	.	.
16D\LL	4r	.	4r	.	4r	4r
16E\	.	.	.	.	.	.
16F#\	.	.	.	.	.	.
16G\JJ	.	.	.	.	.	.
!	!LO:LB:g=original	!	!	!	!	!
=29	=29	=29	=29	=29	=29	=29
2A\	4r	.	4r	p	2.a/	2.aa\
.	4cc#\	.	4ee\	.	.	.
4r	4dd\	.	4ff#\	.	.	.
!LO:LB:g=original	!	!	!	!	!	!
=30	=30	=30	=30	=30	=30	=30
.	8qqff#/	.	8qqaa/	.	.	.
4r	4ee\	.	4gg\	.	2.a/	2.aa\
4r	8cc#\L	.	8ee\L	.	.	.
.	8ee\J	.	8gg\J	.	.	.
16D\LL	4dd\	.	4ff#\	.	.	.
(16E\	.	.	.	.	.	.
16F#\	.	.	.	.	.	.
16G\JJ)	.	.	.	.	.	.
=31	=31	=31	=31	=31	=31	=31
!	!	!	!	!	!	!LO:TX:t=P:problem=takty 31-32 zapisane powtórką
2A\	4r	.	4r	.	2.a/	2.aa\yy
.	4cc#\	.	4ee\	.	.	.
4r	4dd\	.	4ff#\	.	.	.
!	!	!	!LO:LB:g=original	!	!	!
=32	=32	=32	=32	=32	=32	=32
.	8qqff#/	.	8qqaa/	.	.	.
4r	4ee\	.	4gg\	.	2.a/	2.aa\yy
4r	8cc#\L	.	8ee\L	.	.	.
.	8ee\J	.	8gg\J	.	.	.
16D\LL	4dd\	.	4ff#\	.	.	.
16E\	.	.	.	.	.	.
16F#\	.	.	.	.	.	.
16G\JJ	.	.	.	.	.	.
=33	=33	=33	=33	=33	=33	=33
2.A\	4r	.	4r	.	4a/	2.aa\
.	4cc#\	.	4ee\	.	4cc#\	.
.	4dd\	.	4ff#\	.	4dd\	.
=34	=34	=34	=34	=34	=34	=34
4A\	4.ee\	.	8gg\L	.	4.ee\	8gg\L
.	.	.	8aa\	.	.	8aa\
4G\	.	.	8bb\	.	.	8bb\
.	8ccc#\L	.	8ccc#\	.	8ccc#\L	8ccc#\
4F#\	8.ddd\	.	8.ddd\	.	8.ddd\	8.ddd\
.	16aa\Jk	.	16aa\Jk	.	16aa\Jk	16aa\Jk
=35	=35	=35	=35	=35	=35	=35
.	8qqaa/	.	.	.	8qqaa/	8qqbb/
4G\	8gg\L	.	8bb\L	.	8gg\L	12bb\L
.	.	.	.	.	.	12aa\
.	16ff#\L	.	16aa\L	.	16ff#\L	.
.	.	.	.	.	.	12gg\J
.	16ee\JJ	.	16gg\JJ	.	16ee\JJ	.
4A\	4dd\	.	4ff#\	.	4dd\	4ff#\
4AA/	4cc#\	.	4ee\	.	4cc#\	4ee\
=36	=36	=36	=36	=36	=36	=36
4D/	2dd\	.	2dd/ 2f#/	.	2dd\	2dd\
4AA/	.	.	.	.	.	.
4DD/	4r	.	4r	.	4r	4r
!LO:PB:g=original	!LO:LB:g=original	!	!LO:LB:g=original	!	!LO:LB:g=original	!LO:LB:g=original
=37||;;	=37||;	=37||	=37||;	=37||	=37||;;	=37||;;
*k[f#]	*k[f#]	*	*k[f#]	*	*k[f#]	*k[f#]
*G:	*G:	*	*G:	*	*G:	*G:
!LO:TX:a:t=Trio	!LO:TX:a:t=Trio	!	!LO:TX:a:t=Trio	!	!LO:TX:a:t=Trio:problem=dopisane ołowkiem	!LO:TX:a:t=Trio
!	!LO:TX:t=P:problem=przy kluczu błędnie dwa krzyżyki	!	!	!LO:DY:a:t=Sem&colon; Piano	!	!LO:TX:t=P:problem=przy kluczu błędnie dwa krzyżyki
4r	2.B/	.	2.d/	p	2.b/	2.dd\
4GG/	.	.	.	.	.	.
4GG/	.	.	.	.	.	.
=38	=38	=38	=38	=38	=38	=38
4r	2.c/	.	2.e/	.	2.cc\	2.ee\
4CC/	.	.	.	.	.	.
4CC/	.	.	.	.	.	.
=39	=39	=39	=39	=39	=39	=39
2.DD/	4d/	.	4f#/	.	4dd\	4ff#\
.	4a/	.	4cc\	.	4aa\	4ccc\
.	4g/	.	4b\	.	4gg\	4bb\
=40	=40	=40	=40	=40	=40	=40
.	8qqd/	.	8qqb/	.	8qqdd/	8qqbb/
4DD/	2c/	.	2a/	.	2cc\	2aa\
4FF#/	.	.	.	.	.	.
4GG/	4B/	.	4g/	.	4b\	4gg\
=41	=41	=41	=41	=41	=41	=41
4r	2.B/	.	2.g/	.	2.b/	2.gg\
4GG/	.	.	.	.	.	.
4GG/	.	.	.	.	.	.
=42	=42	=42	=42	=42	=42	=42
4r	2.c#X/	.	2.g/	.	2.cc#X\	2.gg\
4AA/	.	.	.	.	.	.
4AA/	.	.	.	.	.	.
=43	=43	=43	=43	=43	=43	=43
4D\	4d/	.	4f#/	.	4dd\	4ff#\
4r	4r	.	4dd\	.	4r	4ddd\
4D\	8d/L	.	8f#/L	.	8dd\L	8ff#\L
.	8f#/J	.	8a/J	.	8ff#\J	8aa\J
=44	=44	=44	=44	=44	=44	=44
.	8qqf#/	.	8qqa/	.	8qqff#/	.
4E\	2.e/	.	2.g/	.	2.ee\	2.gg\
4C#X/	.	.	.	.	.	.
4AA/	.	.	.	.	.	.
=45	=45	=45	=45	=45	=45	=45
4D\	4d/	.	4f#/	.	4dd\	4ff#\
4r	4r	.	4dd\	.	4r	4ddd\
4D\	(8d/L	.	8f#/L	.	8dd\L	8ff#\L
.	8f#/J)	.	8a/J	.	8ff#\J	8aa\J
=46	=46	=46	=46	=46	=46	=46
.	8qqf#/	.	8qqa/	.	8qqff#/	8qqaa/
4E\	2.e/	.	2.g/	.	2.ee\	2.gg\
4C#X/	.	.	.	.	.	.
4AA/	.	.	.	.	.	.
=47	=47	=47	=47	=47	=47	=47
4D\	8f#/L	.	8f#/L	.	8ff#\L	8ff#\L
.	8a/J	.	8a/J	.	8aa\	8aa\
4F#\	8f#/L	.	8f#/L	.	8ff#\	8ff#\
.	8d/J	.	8d/J	.	8dd\J	8dd\
!	!	!	!	!	!LO:TX:t=P:problem=przed nutą zbędna kreska taktowa	!
4A\	8e/L	.	8e/L	.	8ee\L	8ee\
.	8c#X/J	.	8c#X/J	.	8cc#X\J	8cc#X\J
!LO:LB:g=original	!	!	!	!	!	!
=48	=48	=48	=48	=48	=48	=48
4D\	2d/	.	2d/	.	2dd\	2dd\
4r	.	.	.	.	.	.
4r	4r	.	4r	.	4r	4r
=49||;	=49||;	=49||	=49||;	=49||	=49||;	=49||;
2.BB/	4r	.	4g/	.	4r	4gg\
.	4G/	.	4d/	.	4g/	4dd\
.	4G/	.	4fn/	.	4g/	4ffn\
!	!LO:LB:g=original	!	!LO:LB:g=original	!	!	!
=50	=50	=50	=50	=50	=50	=50
2.C/	(2G/	.	(2f#/	.	(2g/	2ff#\
.	4G#X/)	.	4e/)	.	4g#X/)	4ee\
!	!	!	!	!	!LO:LB:g=original	!LO:LB:g=original
=51	=51	=51	=51	=51	=51	=51
2.C#X/	2.A/	.	4a/	.	2.a/	4aa\
.	.	.	4e/	.	.	4ee\
.	.	.	4g/	.	.	4gg\
=52	=52	=52	=52	=52	=52	=52
2D/	2.A/	.	2g/	.	2.a/	2gg\
4r	.	.	4f#X/	.	.	4ff#X\
=53	=53	=53	=53	=53	=53	=53
4r	4r	.	4d/	.	4r	4dd\
4r	4a/	.	4cc\	.	4aa\	4ccc\
4G\	4g/	.	4b\	.	4gg\	4bb\
=54	=54	=54	=54	=54	=54	=54
.	8qqd/	.	8qqb/	.	8qqdd/	8qqbb/
4d\	2c/	.	(2a/	.	(2cc\	2aa\
4D/	.	.	.	.	.	.
4G\	4B/	.	4g/)	.	4b\)	4gg\
=55	=55	=55	=55	=55	=55	=55
4r	4r	.	4d/	.	4r	4dd\
4r	4cc\	.	4ee\	.	4ccc\	4eee\
4G\	4b\	.	4dd\	.	4bb\	4ddd\
=56	=56	=56	=56	=56	=56	=56
.	8qqb/	.	8qqdd/	.	8qqbb/	8qqddd/
4d\	2a/	.	(2cc\	.	2aa\	2ccc\
4D/	.	.	.	.	.	.
4G\	4g/	.	4b\)	.	4gg\	4bb\
=57	=57	=57	=57	=57	=57	=57
4C/	2e/	.	4.e/	.	2ee\	4.ee\
4C/	.	.	.	.	.	.
.	.	.	8a/L	.	.	(8aa\L
4C/	4d/	.	8g/	.	4dd\	8gg\
.	.	.	8f#/J	.	.	8ff#\J)
=58	=58	=58	=58	=58	=58	=58
4BB/	4d/	.	8g/L	.	4dd\	8gg\L
.	.	.	8b\J	.	.	8bb\J
4BB/	4g/	.	(4.dd\	.	4gg\	4.ddd\
4BB/	4g/	.	.	.	4gg\	.
.	.	.	8dd#X\)	.	.	8ddd#X\
=59	=59	=59	=59	=59	=59	=59
*	*	*	*tuplet	*	*Xtuplet	*
!	!LO:TUP:problem=klamra łukowa	!	!LO:TUP:a:problem=klara łukowa, kropka zamiast numeru	!	!	!
4C/	12cc\L	.	12ee\L	.	12ccc\L	12eee\L
.	12b\	.	12ddn\	.	12bb\	12dddn\
.	12a\J	.	12cc\J	.	12aa\J	12ccc\J
4D/	4g/	.	4b\	.	4gg\	4bb\
4DD/	4f#/	.	4a/T	.	4ff#\	4aa\
!LO:LB:g=original	!	!	!	!	!	!
=60	=60	=60	=60	=60	=60	=60
2.GG/	2g/	.	2g/	.	2gg\	2gg\
!LO:TX:b:i:t=Menuet Da Capo	!LO:TX:b:Bi:t=Menuet \nDa Capo	!	!LO:TX:b:Bi:t=Menuet \nDa Capo	!	!LO:TX:b:i:t=Menuet Da Capo:problem=dopisane ołówkiem	!LO:TX:b:i:t=Menuet \nDa Capo
.	4r	.	4r	.	4r	4r
=||;;	=||;	=||	=||;	=||	=||;;	=||;;
*-	*-	*-	*-	*-	*-	*-
!!!system-decoration: [g1][g2]
!!!ENC: Marta Lawrence
!!!END: 2020-10-15
!!!ENC: Mateusz Solarz
!!!END: 2020-06-04
!!!YEC: Copyright 2022 Narodowy Instytut Fryderyka Chopina (https://polishscores.org)
!!!YEM: License CC-BY-4.0 (https://creativecommons.org/licenses/by/4.0)
